rospo-newyear-dark/symbolic/apps/firefox-symbolic.svg

<svg height="16" width="16" xmlns="http://www.w3.org/2000/svg"><path d="m7.5.76171875c-1.70063 0-3.2660615.56930035-4.5214844 1.53125005.033016.0837025.0683391.1873033.1015625.2695312.013416-.00169.0204414-.0023663.0371094-.0039062.001655-.0002343.0020549.0002533.0039063 0l .0195312-.0019532h.0019531c.011303-.0010222.0232183-.0010415.0351563-.0019531.023781-.0031659.0436312-.0035502.0507812-.0039063.01836-.0009.0400339-.0031383.0605469-.0039062.016384-.0011591.0295225-.0017008.0390625-.0019531.0380126-.00105.0721906-.0000667.1035156 0 .027698-.0000018.0607653-.0009734.0976563 0 .1092252.002676.218428.0112144.328125.0214843.1030969.0096871.2048462.0217404.3007812.0371094a.50005.50005 0 0 1  .0039063.0019532c-.001668-.0002801.0061805-.0007369.0234375.0019531a.50005.50005 0 0 1  .0058593.0019531c.0110451.00186.0246687.0030894.0410157.0058594a.50005.50005 0 0 1  .0058593.0019531c.0268661.00486.0388994.0081332.0371094.0078125a.50005.50005 0 0 1  .0058594 0c .0154755.0029848.0289587.0072248.0410156.0097656l-.0019531-.0019531c.01129.002319.0294584.0064787.0527344.0117187h.0039062c.016861.00381.0278106.0083696.0253907.0078126a.50005.50005 0 0 0  .0019531 0c .020685.0048429.0487712.0106712.0820312.0195312h.0019531c.0254411.00667-.0020437.0032025.0195313.0078125.1431502-.149263.3872102-.4326424.7148437-.7070313.1854186-.1552854.387676-.3018254.6367188-.3964843.2490428-.094659.589095-.1257458.8828125.0371093a.50005.50005 0 0 1  .0996094.8027344c-.0615028.0574273-.3708275.4779671-.5527344.8886719-.1763783.3982224-.2043192.7947297-.1835937.8730469.076621.1329603.0978833.1639906.25.1777344.4196348.0378922.5856614.0187736.8554687.1992187.1259515.0842354.219573.2841626.2441406.3867187.1096588.2764918.0481648.3890691.0136719.5332032-.034998.1462445-.0835123.286902-.1835938.4355468-.1347947.200076-.2187149.3041801-.4589843.4472657-.0809927.0482011-.1129467.0591156-.1933594.0976562-.0804127.0385407-.1784423.0848812-.2792969.1308594v-.0019531c-.2189342.1001368-.4692127.1747937-.6660156.2675781-.0301562.0142174-.035381.0211994-.0605469.0351563.0317617.0503518.0259624.0387158.0722657.1074218.0600632.0891238.1338244.193618.1738281.3730469s-.0207845.4741799-.1816407.6347656a.50005.50005 0 0 1 -.6386718.0566407c-.0315317-.0218812-.221162-.1204868-.4042969-.1835938-.024665-.008499-.0335197-.0043188-.0585937-.0117188.030224.0806212.0645907.1688055.1660156.2792969.2591098.2822721.7547522.5714125 1.2402344.6894531a.50005.50005 0 0 1  .0175781.0058594c.0377114.0107069.0613228.0133158.171875-.0136718.1105522-.0269878.2870804-.090067.5273437-.1640626.4877999-.1502108.7984288-.1739823 1.0664063-.1738281.2751321.0001698.5159399.0438263.7539062.140625.1907601.0775889.354605.1877572.5039063.3125s.2821784.2458545.3828125.4570313a.50005.50005 0 0 1  .046875.1738281c.0209076.251891-.1324781.5365835-.3027344.6640625-.1702563.127481-.3313298.170251-.484375.207031-.3060903.073547-.6147004.100257-.8222656.154297-.0132787.003457-.2625389.173482-.5449219.396485-.2541843.200732-.6152384.409014-1.0566406.457031.4484468.072478 1.0450436.05287 1.5976562.050781.7623581-.004176 1.3144687-.252861 1.7558594-.695312.439235-.440292.760614-1.0994728.935547-1.9218755.00888-.0757486.019531-.2348847.019531-.3886719 0-.547764-.085702-.9395649-.310547-1.4335937-.17045-.3742589-.4342024-.8726599-.8300779-1.3105469a.50005.50005 0 0 1 -.0253906-.03125c-.4347403-.5698035-.7303712-1.2412919-.859375-1.953125-.0711137-.391487-.0606939-.9047658.0058594-1.2949219.052154-.3056436.1370224-.6435248.2324219-.90625a.50005.50005 0 0 0  .0019531 0c .0767754-.2100808.1632783-.4204016.25-.63085935-.4947581-.10363197-1.0034534-.171875-1.5292969-.171875zm2.537109.45507815c-.110304.2108407-.2212134.4236731-.318359.6894531-.0627037.1726883-.1464298.4917341-.1875.7324219-.0268967.1576767-.0237068.8617192-.0078125.9492187.100946.5570128.3327655 1.0815304.6699215 1.5234375l-.027343-.03125c.498877.5518197.805982 1.1447812.998046 1.5664063.273532.6010035.400391 1.1839916.400391 1.8476562 0 .2013107-.0097.3939314-.03125.5507813a.50005.50005 0 0 1 -.005859.0351562c-.203406.9661979-.591989 1.8112079-1.208985 2.4296879-.6169951.618479-1.4680155.984834-2.4609371.990234-.5321805.00201-1.2189491.052864-1.8652344-.070312-.3231426-.061589-.6466633-.168595-.9257813-.386719-.2791178-.218125-.4896837-.558125-.5585937-.957031a.50005.50005 0 0 1  .4921875-.585938h1.1386719c.1134834 0 .3102733-.101494.5527343-.292969.2424611-.191475.4748328-.4637679.9140626-.5781248.1858157-.0483784.3139252-.0646559.4726562-.0898437-.0901737-.0345584-.1252924-.0526273-.2988281-.0527344-.2351223-.0001353-.3522343-.0001957-.7714844.1289063-.2124742.065437-.3880252.1313737-.5859375.1796875-.195077.0476216-.4338138.0688973-.671875.0039062-.6714475-.1654455-1.2982173-.5076245-1.7304688-.9785156-.2173634-.2367939-.3920832-.5140985-.4570312-.8398437-.064948-.3257453.0091381-.7016072.2265625-.9960938a.50005.50005 0 0 1  .3789063-.2011719c.1315717-.0061626.2383977.0424247.3574218.0644531a.50005.50005 0 0 1 0-.0097656c0-.2804562.1589109-.4934108.3007813-.6191406s.2888943-.2032646.4335937-.2714844c.2893989-.1364395.5994054-.235658.6777344-.2714844.0949705-.0432985.1903332-.0878958.2636719-.1230468.0733392-.03515.1569612-.0806825.1132812-.0546875-.0696756.0414933.0939231-.1041234.1269531-.1308594-.0722958-.016935-.0045924.000009-.1777343-.015625-.4353431-.0393334-.8453331-.321485-1.0605469-.7070313a.50005.50005 0 0 1 -.0234375-.0488281c-.1992075-.4679247-.0066593-.901716.1523437-1.3261719-.0702502.0739774-.1552952.1577339-.21875.21875l-.0097656.0097657c-.016683.017944-.0323171.0392177-.0957031.0898437-.0700521.0559504-.2278825.1252894-.34375.1308594-.2317349.011146-.2773645-.0378241-.4355469-.0800781-.009183-.002462-.0276864-.0078019-.0527344-.0136719-.015278-.0035514-.0229081-.0050863-.0175781-.0039062a.50005.50005 0 0 1 -.0039062 0c-.004174-.0009501-.0164983-.0039726-.0351563-.0078126a.50005.50005 0 0 0 -.0019531 0c-.007406-.0015599-.0138112-.0027662-.0195313-.0039062-.0272849-.0049-.0402824-.0080326-.0390624-.0078125-.0097051-.00162-.0194572-.0035394-.0332032-.0058594-.0045-.00063-.0116139-.0009362-.0292968-.0039062-.0755535-.012029-.1532018-.02399-.2304688-.03125-.088979-.008335-.1784937-.013585-.2617188-.015625-.020122-.0005309-.0461687 0-.0742187 0-.027102-.0000578-.0492814-.0004433-.0683594 0-.0051345.0003641-.0075594.000045-.0058593 0a .50005.50005 0 0 1 -.015625.0019531c-.0200511.00062-.0406291.0008831-.0625.0019531a.50005.50005 0 0 1 -.0039063 0c-.018084.00106-.0356135.0039894-.0546875.0058594a.50005.50005 0 0 1 -.0097656 0c-.00729.00068-.0197419.0022894-.0449219.0058594a.50005.50005 0 0 1 -.0214844.0019531.50005.50005 0 0 1 -.0820312.0078125c-.010359-.000037-.0368759.0050315-.0761719.0234375a.50005.50005 0 0 1 -.6445312-.2011719c-.0650942-.1116722-.1165577-.2413731-.1679688-.3710937-.109871.1127308-.2233913.2222665-.3261719.3417968-.090325 2.9899533.6090581 6.5924641 2.6054688 8.7050778 1.9666246 2.081094 5.2204358 2.703864 6.6269531 1.666016 1.496113-1.10396.694135-7.1994865.132813-11.1308594-.274888-.395859-.55309-.8166253-.828126-1.2558594-.11342-.0478003-.229517-.0886197-.345703-.1308593z" fill="#d3dae3" opacity=".3"/><path d="m10.135253.00000002-.08935.11309524c-.01538.0193905-.03043.0390895-.046138.0595238-.3470346.46760382-.5443018.99580404-.7516765 1.56324404-.07905.2177067-.1628606.5460307-.2094727.8191964-.046725.2739164-.050824.8825306-.00732 1.1220239.1149749.6344229.3779658 1.23224.7639158 1.7380953.4473764.4948533.7333054 1.0403009.9145424 1.4382438.249188.5475162.354492 1.0349108.354492 1.6406251 0 .1825791-.01026.3702572-.02563.4821429-.377734 1.7942745-1.4280003 3.0141935-3.18328 3.0238095-1.1111351.0042-2.6539217.165952-2.855336-1h1.1384914c.6326756 0 1.1397718-.770046 1.5922803-.88786.5377711-.1400126 1.2692283-.11214 1.2369633-.5008627-.0836623-.1755622-.3771785-.4207307-.6232911-.5208334-.2061375-.0838516-.3184169-.1047585-.5654295-.1049109-.2515499-.0001448-.4648923.0121295-.9184173.1517859-.4527375.1394324-.7036852.2599573-.9829103.1806811-1.1613018-.282362-2.2509618-1.2700876-1.6856868-2.0357143.339975-.015924.9301231.2163772 1.145375.3657486.20595-.2056038-.2410519-.5219337-.31275-.8110118 0-.360832.8237719-.5708823 1.1210351-.7068454.1958251-.08928.3867601-.1809192.4240725-.2031249.081075-.0482819.2373877-.2024179.3010253-.2968751.0970874-.144198.1608446-.411227.1215821-.5074403-.049275-.1209181.1193544-.1961707-.6827707-.2686012-.3027374-.0273524-.509587-.1679531-.6691869-.4538693-.2796019-.6567657.5052801-2.0194093.8596176-2.3502663-.5635874-.3124877-1.4058288.7656025-1.7414537 1.0857204-.1075125.1080801-.074647.1064233-.4006346.0193451-.02175-.00583-.044283-.01096-.067383-.016369-.00825-.0019-.016654-.00413-.024904-.00595-.015-.00343-.030769-.00651-.046143-.00967-.010875-.00229-.021708-.00453-.032959-.0067-.01275-.00229-.02526-.00512-.038085-.00744-.0135-.00229-.026707-.00441-.040284-.0067-.00975-.00152-.019549-.00282-.029299-.00446-.086324-.013829-.1765086-.025691-.2673336-.034225-.099338-.0093-.1989409-.015497-.2951659-.017855-.028875-.0007619-.057643-.0007619-.085693-.0007619-.030375-.0000647-.059598-.0000404-.088623.0007619-.00562.0001487-.01122.000363-.016845.000762-.024375.0007619-.048415.00183-.071778.00297-.00375.0001867-.00652.000363-.00952.0007619-.025875.00152-.050595.00358-.074707.00595-.00375.0001944-.00399.0003632-.00586.000762-.02475.00229-.047737.00573-.070313.00893h-.0007499c-.010125.00152-.021011.00274-.030761.00446-.1074375-.0003809-.2059639.03056-.2900389.06994-.282152-.4840459-.5522039-1.6554933-.7714664-2.14023244-.51285.27303244-.6625133 2.13868804-.7497758 2.59600234-.033375.1818552-.07159.5349912-.071778.6599703-.0000342.017989-.00445.024998-.00513.037947-.74097833 1.1813414-1.1733162 2.5824061-1.1733162 4.0870328 0 4.2078836 3.3578643 7.6190476 7.4999998 7.6190476 4.1421362 0 7.5000002-3.411164 7.5000002-7.6190476 0-2.6666667-1.175522-4.0367672-2.339355-5.9084821 0-.00114.000087-.00183-.0036-.00298-.171559-.2605903-.32-.546668-.44022-.8303513-.01875-.062537-.04101-.1138393-.04907-.1138393-.0037 0-.0072.00247-.01171.0067-.151232.1857022-.22435.908908-.305425 1.134667-.58542-.823693-1.311122-1.6424874-1.693393-2.55505954z" fill="#d3dae3"/></svg>

<svg xmlns="http://www.w3.org/2000/svg" width="16" height="16" version="1.1">
 <path style="fill:#d3dae3;opacity:0.3" d="M 7.5 0.76171875 C 5.79937 0.76171875 4.2339385 1.3310191 2.9785156 2.2929688 C 3.0115316 2.3766713 3.0468547 2.4802721 3.0800781 2.5625 C 3.0934941 2.56081 3.1005195 2.5601337 3.1171875 2.5585938 C 3.1188425 2.5583595 3.1192424 2.5588471 3.1210938 2.5585938 L 3.140625 2.5566406 C 3.140625 2.5566406 3.1425781 2.5566406 3.1425781 2.5566406 C 3.1538811 2.5556184 3.1657964 2.5555991 3.1777344 2.5546875 C 3.2015154 2.5515216 3.2213656 2.5511373 3.2285156 2.5507812 C 3.2468756 2.5498812 3.2685495 2.5476429 3.2890625 2.546875 C 3.3054465 2.5457159 3.318585 2.5451742 3.328125 2.5449219 C 3.3661376 2.5438719 3.4003156 2.5448552 3.4316406 2.5449219 C 3.4593386 2.5449201 3.4924059 2.5439485 3.5292969 2.5449219 C 3.6385221 2.5475979 3.7477249 2.5561363 3.8574219 2.5664062 C 3.9605188 2.5760933 4.0622681 2.5881466 4.1582031 2.6035156 A 0.50005 0.50005 0 0 1 4.1621094 2.6054688 C 4.1604414 2.6051887 4.1682899 2.6047319 4.1855469 2.6074219 A 0.50005 0.50005 0 0 1 4.1914062 2.609375 C 4.2024513 2.611235 4.2160749 2.6124644 4.2324219 2.6152344 A 0.50005 0.50005 0 0 1 4.2382812 2.6171875 C 4.2651473 2.6220475 4.2771806 2.6253207 4.2753906 2.625 A 0.50005 0.50005 0 0 1 4.28125 2.625 C 4.2967255 2.6279848 4.3102087 2.6322248 4.3222656 2.6347656 L 4.3203125 2.6328125 C 4.3316025 2.6351315 4.3497709 2.6392912 4.3730469 2.6445312 L 4.3769531 2.6445312 C 4.3938141 2.6483412 4.4047637 2.6529008 4.4023438 2.6523438 A 0.50005 0.50005 0 0 0 4.4042969 2.6523438 C 4.4249819 2.6571867 4.4530681 2.663015 4.4863281 2.671875 L 4.4882812 2.671875 C 4.5137223 2.678545 4.4862375 2.6750775 4.5078125 2.6796875 C 4.6509627 2.5304245 4.8950227 2.2470451 5.2226562 1.9726562 C 5.4080748 1.8173708 5.6103322 1.6708308 5.859375 1.5761719 C 6.1084178 1.4815129 6.44847 1.4504261 6.7421875 1.6132812 A 0.50005 0.50005 0 0 1 6.8417969 2.4160156 C 6.7802941 2.4734429 6.4709694 2.8939827 6.2890625 3.3046875 C 6.1126842 3.7029099 6.0847433 4.0994172 6.1054688 4.1777344 C 6.1820898 4.3106947 6.2033521 4.341725 6.3554688 4.3554688 C 6.7751036 4.393361 6.9411302 4.3742424 7.2109375 4.5546875 C 7.336889 4.6389229 7.4305105 4.8388501 7.4550781 4.9414062 C 7.5647369 5.217898 7.5032429 5.3304753 7.46875 5.4746094 C 7.433752 5.6208539 7.3852377 5.7615114 7.2851562 5.9101562 C 7.1503615 6.1102322 7.0664413 6.2143363 6.8261719 6.3574219 C 6.7451792 6.405623 6.7132252 6.4165375 6.6328125 6.4550781 C 6.5523998 6.4936188 6.4543702 6.5399593 6.3535156 6.5859375 L 6.3535156 6.5839844 C 6.1345814 6.6841212 5.8843029 6.7587781 5.6875 6.8515625 C 5.6573438 6.8657799 5.652119 6.8727619 5.6269531 6.8867188 C 5.6587148 6.9370706 5.6529155 6.9254346 5.6992188 6.9941406 C 5.759282 7.0832644 5.8330432 7.1877586 5.8730469 7.3671875 C 5.9130506 7.5466164 5.8522624 7.8413674 5.6914062 8.0019531 A 0.50005 0.50005 0 0 1 5.0527344 8.0585938 C 5.0212027 8.0367126 4.8315724 7.938107 4.6484375 7.875 C 4.6237725 7.866501 4.6149178 7.8706812 4.5898438 7.8632812 C 4.6200678 7.9439024 4.6544345 8.0320867 4.7558594 8.1425781 C 5.0149692 8.4248502 5.5106116 8.7139906 5.9960938 8.8320312 A 0.50005 0.50005 0 0 1 6.0136719 8.8378906 C 6.0513833 8.8485975 6.0749947 8.8512064 6.1855469 8.8242188 C 6.2960991 8.797231 6.4726273 8.7341518 6.7128906 8.6601562 C 7.2006905 8.5099454 7.5113194 8.4861739 7.7792969 8.4863281 C 8.054429 8.4864979 8.2952368 8.5301544 8.5332031 8.6269531 C 8.7239632 8.704542 8.8878081 8.8147103 9.0371094 8.9394531 C 9.1864107 9.0641959 9.3192878 9.1853076 9.4199219 9.3964844 A 0.50005 0.50005 0 0 1 9.4667969 9.5703125 C 9.4877045 9.8222035 9.3343188 10.106896 9.1640625 10.234375 C 8.9938062 10.361856 8.8327327 10.404626 8.6796875 10.441406 C 8.3735972 10.514953 8.0649871 10.541663 7.8574219 10.595703 C 7.8441432 10.59916 7.594883 10.769185 7.3125 10.992188 C 7.0583157 11.19292 6.6972616 11.401202 6.2558594 11.449219 C 6.7043062 11.521697 7.300903 11.502089 7.8535156 11.5 C 8.6158737 11.495824 9.1679843 11.247139 9.609375 10.804688 C 10.04861 10.364396 10.369989 9.7052152 10.544922 8.8828125 C 10.553802 8.8070639 10.564453 8.6479278 10.564453 8.4941406 C 10.564453 7.9463766 10.478751 7.5545757 10.253906 7.0605469 C 10.083456 6.686288 9.8197036 6.187887 9.4238281 5.75 A 0.50005 0.50005 0 0 1 9.3984375 5.71875 C 8.9636972 5.1489465 8.6680663 4.4774581 8.5390625 3.765625 C 8.4679488 3.374138 8.4783686 2.8608592 8.5449219 2.4707031 C 8.5970759 2.1650595 8.6819443 1.8271783 8.7773438 1.5644531 A 0.50005 0.50005 0 0 0 8.7792969 1.5644531 C 8.8560723 1.3543723 8.9425752 1.1440515 9.0292969 0.93359375 C 8.5345388 0.82996178 8.0258435 0.76171875 7.5 0.76171875 z M 10.037109 1.2167969 C 9.926805 1.4276376 9.8158956 1.64047 9.71875 1.90625 C 9.6560463 2.0789383 9.5723202 2.3979841 9.53125 2.6386719 C 9.5043533 2.7963486 9.5075432 3.5003911 9.5234375 3.5878906 C 9.6243835 4.1449034 9.856203 4.669421 10.193359 5.1113281 L 10.166016 5.0800781 C 10.664893 5.6318978 10.971998 6.2248593 11.164062 6.6464844 C 11.437594 7.2474879 11.564453 7.830476 11.564453 8.4941406 C 11.564453 8.6954513 11.554753 8.888072 11.533203 9.0449219 A 0.50005 0.50005 0 0 1 11.527344 9.0800781 C 11.323938 10.046276 10.935355 10.891286 10.318359 11.509766 C 9.7013639 12.128245 8.8503435 12.4946 7.8574219 12.5 C 7.3252414 12.50201 6.6384728 12.552864 5.9921875 12.429688 C 5.6690449 12.368099 5.3455242 12.261093 5.0664062 12.042969 C 4.7872884 11.824844 4.5767225 11.484844 4.5078125 11.085938 A 0.50005 0.50005 0 0 1 5 10.5 L 6.1386719 10.5 C 6.2521553 10.5 6.4489452 10.398506 6.6914062 10.207031 C 6.9338673 10.015556 7.166239 9.7432631 7.6054688 9.6289062 C 7.7912845 9.5805278 7.919394 9.5642503 8.078125 9.5390625 C 7.9879513 9.5045041 7.9528326 9.4864352 7.7792969 9.4863281 C 7.5441746 9.4861928 7.4270626 9.4861324 7.0078125 9.6152344 C 6.7953383 9.6806714 6.6197873 9.7466081 6.421875 9.7949219 C 6.226798 9.8425435 5.9880612 9.8638192 5.75 9.7988281 C 5.0785525 9.6333826 4.4517827 9.2912036 4.0195312 8.8203125 C 3.8021678 8.5835186 3.627448 8.306214 3.5625 7.9804688 C 3.497552 7.6547235 3.5716381 7.2788616 3.7890625 6.984375 A 0.50005 0.50005 0 0 1 4.1679688 6.7832031 C 4.2995405 6.7770405 4.4063665 6.8256278 4.5253906 6.8476562 A 0.50005 0.50005 0 0 1 4.5253906 6.8378906 C 4.5253906 6.5574344 4.6843015 6.3444798 4.8261719 6.21875 C 4.9680423 6.0930202 5.1150662 6.0154854 5.2597656 5.9472656 C 5.5491645 5.8108261 5.859171 5.7116076 5.9375 5.6757812 C 6.0324705 5.6324827 6.1278332 5.5878854 6.2011719 5.5527344 C 6.2745111 5.5175844 6.3581331 5.4720519 6.3144531 5.4980469 C 6.2447775 5.5395402 6.4083762 5.3939235 6.4414062 5.3671875 C 6.3691104 5.3502525 6.4368138 5.3671965 6.2636719 5.3515625 C 5.8283288 5.3122291 5.4183388 5.0300775 5.203125 4.6445312 A 0.50005 0.50005 0 0 1 5.1796875 4.5957031 C 4.98048 4.1277784 5.1730282 3.6939871 5.3320312 3.2695312 C 5.261781 3.3435086 5.176736 3.4272651 5.1132812 3.4882812 L 5.1035156 3.4980469 C 5.0868326 3.5159909 5.0711985 3.5372646 5.0078125 3.5878906 C 4.9377604 3.643841 4.77993 3.71318 4.6640625 3.71875 C 4.4323276 3.729896 4.386698 3.6809259 4.2285156 3.6386719 C 4.2193326 3.6362099 4.2008292 3.63087 4.1757812 3.625 C 4.1605032 3.6214486 4.1528731 3.6199137 4.1582031 3.6210938 A 0.50005 0.50005 0 0 1 4.1542969 3.6210938 C 4.1501229 3.6201437 4.1377986 3.6171212 4.1191406 3.6132812 A 0.50005 0.50005 0 0 0 4.1171875 3.6132812 C 4.1097815 3.6117213 4.1033763 3.610515 4.0976562 3.609375 C 4.0703713 3.604475 4.0573738 3.6013424 4.0585938 3.6015625 C 4.0488887 3.5999425 4.0391366 3.5980231 4.0253906 3.5957031 C 4.0208906 3.5950731 4.0137767 3.5947669 3.9960938 3.5917969 C 3.9205403 3.5797679 3.842892 3.5678069 3.765625 3.5605469 C 3.676646 3.5522119 3.5871313 3.5469619 3.5039062 3.5449219 C 3.4837842 3.544391 3.4577375 3.5449219 3.4296875 3.5449219 C 3.4025855 3.5448641 3.3804061 3.5444786 3.3613281 3.5449219 C 3.3561936 3.545286 3.3537687 3.5449669 3.3554688 3.5449219 A 0.50005 0.50005 0 0 1 3.3398438 3.546875 C 3.3197927 3.547495 3.2992147 3.5477581 3.2773438 3.5488281 A 0.50005 0.50005 0 0 1 3.2734375 3.5488281 C 3.2553535 3.5498881 3.237824 3.5528175 3.21875 3.5546875 A 0.50005 0.50005 0 0 1 3.2089844 3.5546875 C 3.2016944 3.5553675 3.1892425 3.5569769 3.1640625 3.5605469 A 0.50005 0.50005 0 0 1 3.1425781 3.5625 A 0.50005 0.50005 0 0 1 3.0605469 3.5703125 C 3.0501879 3.5702755 3.023671 3.575344 2.984375 3.59375 A 0.50005 0.50005 0 0 1 2.3398438 3.3925781 C 2.2747496 3.2809059 2.2232861 3.151205 2.171875 3.0214844 C 2.062004 3.1342152 1.9484837 3.2437509 1.8457031 3.3632812 C 1.7553781 6.3532345 2.4547612 9.9557453 4.4511719 12.068359 C 6.4177965 14.149453 9.6716077 14.772223 11.078125 13.734375 C 12.574238 12.630415 11.77226 6.5348885 11.210938 2.6035156 C 10.93605 2.2076566 10.657848 1.7868903 10.382812 1.3476562 C 10.269392 1.2998559 10.153295 1.2590365 10.037109 1.2167969 z"/>
 <path style="fill:#d3dae3" d="m 10.135253,2e-8 -0.08935,0.11309524 c -0.01538,0.0193905 -0.03043,0.0390895 -0.046138,0.0595238 C 9.6527304,0.64022288 9.4554632,1.1684231 9.2480885,1.7358631 9.1690385,1.9535698 9.0852279,2.2818938 9.0386158,2.5550595 c -0.046725,0.2739164 -0.050824,0.8825306 -0.00732,1.1220239 0.1149749,0.6344229 0.3779658,1.23224 0.7639158,1.7380953 0.4473764,0.4948533 0.7333054,1.0403009 0.9145424,1.4382438 0.249188,0.5475162 0.354492,1.0349108 0.354492,1.6406251 0,0.1825791 -0.01026,0.3702572 -0.02563,0.4821429 C 10.660882,10.770465 9.6106157,11.990384 7.855336,12 6.7442009,12.0042 5.2014143,12.165952 5,11 l 1.1384914,0 C 6.771167,11 7.2782632,10.229954 7.7307717,10.11214 8.2685428,9.9721274 9,10 8.967735,9.6112773 8.8840727,9.4357151 8.5905565,9.1905466 8.3444439,9.0904439 8.1383064,9.0065923 8.026027,8.9856854 7.7790144,8.985533 7.5274645,8.9853882 7.3141221,8.9976625 6.8605971,9.1373189 6.4078596,9.2767513 6.1569119,9.3972762 5.8776868,9.318 4.716385,9.035638 3.626725,8.0479124 4.192,7.2822857 4.531975,7.2663617 5.1221231,7.4986629 5.337375,7.6480343 5.543325,7.4424305 5.0963231,7.1261006 5.024625,6.8370225 c 0,-0.360832 0.8237719,-0.5708823 1.1210351,-0.7068454 C 6.3414852,6.0408971 6.5324202,5.9492579 6.5697326,5.9270522 6.6508076,5.8787703 6.8071203,5.7246343 6.8707579,5.6301771 6.9678453,5.4859791 7.0316025,5.2189501 6.99234,5.1227368 6.943065,5.0018187 7.1116944,4.9265661 6.3095693,4.8541356 6.0068319,4.8267832 5.7999823,4.6861825 5.6403824,4.4002663 5.3607805,3.7435006 6.1456625,2.380857 6.5,2.05 5.9364126,1.7375123 5.0941712,2.8156025 4.7585463,3.1357204 4.6510338,3.2438005 4.6838993,3.2421437 4.3579117,3.1550655 c -0.02175,-0.00583 -0.044283,-0.01096 -0.067383,-0.016369 -0.00825,-0.0019 -0.016654,-0.00413 -0.024904,-0.00595 -0.015,-0.00343 -0.030769,-0.00651 -0.046143,-0.00967 -0.010875,-0.00229 -0.021708,-0.00453 -0.032959,-0.0067 -0.01275,-0.00229 -0.02526,-0.00512 -0.038085,-0.00744 -0.0135,-0.00229 -0.026707,-0.00441 -0.040284,-0.0067 -0.00975,-0.00152 -0.019549,-0.00282 -0.029299,-0.00446 -0.086324,-0.013829 -0.1765086,-0.025691 -0.2673336,-0.034225 -0.099338,-0.0093 -0.1989409,-0.015497 -0.2951659,-0.017855 -0.028875,-7.619e-4 -0.057643,-7.619e-4 -0.085693,-7.619e-4 -0.030375,-6.47e-5 -0.059598,-4.04e-5 -0.088623,7.619e-4 -0.00562,1.487e-4 -0.01122,3.63e-4 -0.016845,7.62e-4 -0.024375,7.619e-4 -0.048415,0.00183 -0.071778,0.00297 -0.00375,1.867e-4 -0.00652,3.63e-4 -0.00952,7.619e-4 -0.025875,0.00152 -0.050595,0.00358 -0.074707,0.00595 -0.00375,1.944e-4 -0.00399,3.632e-4 -0.00586,7.62e-4 -0.02475,0.00229 -0.047737,0.00573 -0.070313,0.00893 l -7.499e-4,0 c -0.010125,0.00152 -0.021011,0.00274 -0.030761,0.00446 -0.1074375,-3.809e-4 -0.2059639,0.03056 -0.2900389,0.06994 C 2.4893144,2.6561865 2.2192625,1.4847391 2,0.99999996 1.48715,1.2730324 1.3374867,3.138688 1.2502242,3.5960023 c -0.033375,0.1818552 -0.07159,0.5349912 -0.071778,0.6599703 -3.42e-5,0.017989 -0.00445,0.024998 -0.00513,0.037947 C 0.43233787,5.475261 0,6.8763257 0,8.3809524 0,12.588836 3.3578643,16 7.4999998,16 11.642136,16 15,12.588836 15,8.3809524 15,5.7142857 13.824478,4.3441852 12.660645,2.4724703 c 0,-0.00114 8.7e-5,-0.00183 -0.0036,-0.00298 -0.171559,-0.2605903 -0.32,-0.546668 -0.44022,-0.8303513 -0.01875,-0.062537 -0.04101,-0.1138393 -0.04907,-0.1138393 -0.0037,0 -0.0072,0.00247 -0.01171,0.0067 -0.151232,0.1857022 -0.22435,0.908908 -0.305425,1.134667 C 11.2652,1.8429737 10.539498,1.0241793 10.157227,0.11160716 Z"/>
</svg>
